austria/municipalities/31612.svg

<?xml version="1.0" encoding="UTF-8"?>
<!DOCTYPE svg PUBLIC "-//W3C//DTD SVG 1.1//EN" "http://www.w3.org/Graphics/SVG/1.1/DTD/svg11.dtd">
<svg xmlns="http://www.w3.org/2000/svg" version="1.1" width="85px" height="96px" style="shape-rendering:geometricPrecision; text-rendering:geometricPrecision; image-rendering:optimizeQuality; fill-rule:evenodd; clip-rule:evenodd" xmlns:xlink="http://www.w3.org/1999/xlink">
<g><path style="opacity:1" fill="#1a1912" d="M 80.5,2.5 C 80.8884,23.5301 80.3884,44.5301 79,65.5C 73.1889,79.9942 62.6889,88.4942 47.5,91C 37.9829,92.3027 28.9829,90.8027 20.5,86.5C 18.4048,85.588 16.4048,84.4213 14.5,83C 8.80481,77.2846 4.97147,70.4513 3,62.5C 2.33333,42.5 2.33333,22.5 3,2.5C 28.931,1.16845 54.7644,1.16845 80.5,2.5 Z"/></g>
<g><path style="opacity:1" fill="#f3e01c" d="M 6.5,3.5 C 19.809,5.27902 33.4757,6.44568 47.5,7C 48.9423,7.37675 49.9423,8.21009 50.5,9.5C 49.8333,9.5 49.1667,9.5 48.5,9.5C 47.791,8.59603 46.791,8.26269 45.5,8.5C 37.7015,5.82181 31.2015,7.82181 26,14.5C 24.2932,16.9088 23.4598,19.5755 23.5,22.5C 22.1667,25.1667 22.1667,27.8333 23.5,30.5C 23.6036,32.7028 24.2702,34.7028 25.5,36.5C 18.41,36.4636 12.91,39.4636 9,45.5C 7.12648,48.1682 6.29314,51.1682 6.5,54.5C 6.31608,57.2046 6.98274,59.5379 8.5,61.5C 8.5,62.5 8.5,63.5 8.5,64.5C 8.73731,65.791 8.40397,66.791 7.5,67.5C 5.93041,65.1489 5.09708,62.4823 5,59.5C 4.83333,50.1667 4.66667,40.8333 4.5,31.5C 4.50159,21.8086 5.16826,12.4752 6.5,3.5 Z"/></g>
<g><path style="opacity:1" fill="#f4e11c" d="M 6.5,3.5 C 30.5,3.5 54.5,3.5 78.5,3.5C 78.8302,22.3408 78.4969,41.0075 77.5,59.5C 76.8333,56.5 76.1667,53.5 75.5,50.5C 73.5,43.8333 69.1667,39.5 62.5,37.5C 60.5,36.8333 58.5,36.1667 56.5,35.5C 61.9371,25.0515 59.9371,16.3848 50.5,9.5C 49.9423,8.21009 48.9423,7.37675 47.5,7C 33.4757,6.44568 19.809,5.27902 6.5,3.5 Z"/></g>
<g><path style="opacity:1" fill="#3aae71" d="M 45.5,8.5 C 46.791,8.26269 47.791,8.59603 48.5,9.5C 55.3837,13.934 58.5503,20.2673 58,28.5C 57.5762,31.0254 56.4095,33.0254 54.5,34.5C 54.5,31.8333 54.5,29.1667 54.5,26.5C 51.1667,26.5 47.8333,26.5 44.5,26.5C 44.7373,25.209 44.404,24.209 43.5,23.5C 43.7406,21.1016 43.0739,19.1016 41.5,17.5C 40.8333,18.1667 40.1667,18.8333 39.5,19.5C 38.4217,21.5394 37.4217,23.706 36.5,26C 33.5184,26.498 30.5184,26.6646 27.5,26.5C 27.5,29.5 27.5,32.5 27.5,35.5C 25.9263,34.0158 24.593,32.3492 23.5,30.5C 22.1667,27.8333 22.1667,25.1667 23.5,22.5C 27.2047,12.3058 34.538,7.63916 45.5,8.5 Z"/></g>
<g><path style="opacity:1" fill="#1d2717" d="M 45.5,8.5 C 34.538,7.63916 27.2047,12.3058 23.5,22.5C 23.4598,19.5755 24.2932,16.9088 26,14.5C 31.2015,7.82181 37.7015,5.82181 45.5,8.5 Z"/></g>
<g><path style="opacity:1" fill="#e9eaea" d="M 41.5,17.5 C 41.595,19.7857 42.2616,21.7857 43.5,23.5C 43.5,24.5 43.5,25.5 43.5,26.5C 41.712,26.7852 40.0453,26.4519 38.5,25.5C 39.3482,23.5914 39.6816,21.5914 39.5,19.5C 40.1667,18.8333 40.8333,18.1667 41.5,17.5 Z"/></g>
<g><path style="opacity:1" fill="#2c5440" d="M 41.5,17.5 C 43.0739,19.1016 43.7406,21.1016 43.5,23.5C 42.2616,21.7857 41.595,19.7857 41.5,17.5 Z"/></g>
<g><path style="opacity:1" fill="#49282d" d="M 39.5,19.5 C 39.6816,21.5914 39.3482,23.5914 38.5,25.5C 40.0453,26.4519 41.712,26.7852 43.5,26.5C 43.5,25.5 43.5,24.5 43.5,23.5C 44.404,24.209 44.7373,25.209 44.5,26.5C 47.8333,26.5 51.1667,26.5 54.5,26.5C 54.5,29.1667 54.5,31.8333 54.5,34.5C 54.6716,35.4916 54.3382,36.1583 53.5,36.5C 53.5,33.5 53.5,30.5 53.5,27.5C 45.1667,27.5 36.8333,27.5 28.5,27.5C 28.5,30.5 28.5,33.5 28.5,36.5C 27.8333,36.5 27.5,36.1667 27.5,35.5C 27.5,32.5 27.5,29.5 27.5,26.5C 30.5184,26.6646 33.5184,26.498 36.5,26C 37.4217,23.706 38.4217,21.5394 39.5,19.5 Z"/></g>
<g><path style="opacity:1" fill="#da0052" d="M 53.5,36.5 C 53.5,36.8333 53.5,37.1667 53.5,37.5C 44.9832,37.8261 36.6499,37.4927 28.5,36.5C 28.5,33.5 28.5,30.5 28.5,27.5C 36.8333,27.5 45.1667,27.5 53.5,27.5C 53.5,30.5 53.5,33.5 53.5,36.5 Z"/></g>
<g><path style="opacity:1" fill="#716409" d="M 56.5,35.5 C 58.5,36.1667 60.5,36.8333 62.5,37.5C 60.076,37.8076 57.7427,37.4742 55.5,36.5C 55.6236,35.8933 55.9569,35.56 56.5,35.5 Z"/></g>
<g><path style="opacity:1" fill="#263018" d="M 48.5,9.5 C 49.1667,9.5 49.8333,9.5 50.5,9.5C 59.9371,16.3848 61.9371,25.0515 56.5,35.5C 55.9569,35.56 55.6236,35.8933 55.5,36.5C 57.7427,37.4742 60.076,37.8076 62.5,37.5C 69.1667,39.5 73.5,43.8333 75.5,50.5C 76.5643,57.5133 75.0643,63.8466 71,69.5C 69.6703,70.5822 68.1703,71.2488 66.5,71.5C 73.1056,66.133 75.6056,59.133 74,50.5C 70.7271,41.2793 64.2271,37.2793 54.5,38.5C 54.1667,38.5 53.8333,38.5 53.5,38.5C 53.5,38.1667 53.5,37.8333 53.5,37.5C 53.5,37.1667 53.5,36.8333 53.5,36.5C 54.3382,36.1583 54.6716,35.4916 54.5,34.5C 56.4095,33.0254 57.5762,31.0254 58,28.5C 58.5503,20.2673 55.3837,13.934 48.5,9.5 Z"/></g>
<g><path style="opacity:1" fill="#3ab173" d="M 21.5,38.5 C 23.5,38.5 25.5,38.5 27.5,38.5C 27.7744,43.263 27.441,47.9296 26.5,52.5C 24.5,53.8333 22.8333,55.5 21.5,57.5C 20.0384,58.4577 18.7051,59.6244 17.5,61C 20.8579,61.3135 23.8579,60.4802 26.5,58.5C 27.9002,57.8999 28.9002,56.8999 29.5,55.5C 31.1935,58.1897 33.5268,60.1897 36.5,61.5C 37.7175,62.1614 39.0508,62.8281 40.5,63.5C 38.1185,66.5483 35.4518,69.2149 32.5,71.5C 31.791,72.404 30.791,72.7373 29.5,72.5C 19.7852,73.811 12.7852,70.1443 8.5,61.5C 6.41639,49.9833 10.7497,42.3166 21.5,38.5 Z"/></g>
<g><path style="opacity:1" fill="#3ab273" d="M 54.5,38.5 C 64.2271,37.2793 70.7271,41.2793 74,50.5C 75.6056,59.133 73.1056,66.133 66.5,71.5C 61.547,72.3292 56.547,72.6625 51.5,72.5C 47.5493,70.5494 44.5493,67.5494 42.5,63.5C 43.6016,62.8243 44.6016,62.1577 45.5,61.5C 47.3885,60.396 49.0552,59.0627 50.5,57.5C 51.1667,57.5 51.8333,57.5 52.5,57.5C 55.4432,57.9802 58.1098,58.9802 60.5,60.5C 61.6009,61.5983 62.9343,61.765 64.5,61C 63.241,58.2728 61.241,56.4394 58.5,55.5C 58.2882,53.6159 57.2882,52.2826 55.5,51.5C 54.5078,47.2172 54.1744,42.8839 54.5,38.5 Z"/></g>
<g><path style="opacity:1" fill="#333e1d" d="M 25.5,36.5 C 24.1667,37.1667 22.8333,37.8333 21.5,38.5C 10.7497,42.3166 6.41639,49.9833 8.5,61.5C 6.98274,59.5379 6.31608,57.2046 6.5,54.5C 6.29314,51.1682 7.12648,48.1682 9,45.5C 12.91,39.4636 18.41,36.4636 25.5,36.5 Z"/></g>
<g><path style="opacity:1" fill="#7f152f" d="M 53.5,52.5 C 52.962,54.1172 52.6287,55.7839 52.5,57.5C 51.8333,57.5 51.1667,57.5 50.5,57.5C 51.1589,55.8621 51.8256,54.1955 52.5,52.5C 44.6765,51.1801 37.0098,51.1801 29.5,52.5C 29.1667,52.5 28.8333,52.5 28.5,52.5C 32.2762,51.1752 36.4428,50.5085 41,50.5C 45.5572,50.5085 49.7238,51.1752 53.5,52.5 Z"/></g>
<g><path style="opacity:1" fill="#54645a" d="M 23.5,30.5 C 24.593,32.3492 25.9263,34.0158 27.5,35.5C 27.5,36.1667 27.8333,36.5 28.5,36.5C 36.6499,37.4927 44.9832,37.8261 53.5,37.5C 53.5,37.8333 53.5,38.1667 53.5,38.5C 53.8333,38.5 54.1667,38.5 54.5,38.5C 54.1744,42.8839 54.5078,47.2172 55.5,51.5C 57.2882,52.2826 58.2882,53.6159 58.5,55.5C 57.078,54.075 55.4113,53.075 53.5,52.5C 49.7238,51.1752 45.5572,50.5085 41,50.5C 36.4428,50.5085 32.2762,51.1752 28.5,52.5C 27.8333,52.5 27.1667,52.5 26.5,52.5C 27.441,47.9296 27.7744,43.263 27.5,38.5C 25.5,38.5 23.5,38.5 21.5,38.5C 22.8333,37.8333 24.1667,37.1667 25.5,36.5C 24.2702,34.7028 23.6036,32.7028 23.5,30.5 Z"/></g>
<g><path style="opacity:1" fill="#fbfbfb" d="M 53.5,38.5 C 53.5,42.1667 53.5,45.8333 53.5,49.5C 45.1667,49.5 36.8333,49.5 28.5,49.5C 28.5,45.8333 28.5,42.1667 28.5,38.5C 36.8333,38.5 45.1667,38.5 53.5,38.5 Z"/></g>
<g><path style="opacity:1" fill="#d90152" d="M 50.5,57.5 C 49.0552,59.0627 47.3885,60.396 45.5,61.5C 42.5,61.5 39.5,61.5 36.5,61.5C 33.5268,60.1897 31.1935,58.1897 29.5,55.5C 29.5,54.5 29.5,53.5 29.5,52.5C 37.0098,51.1801 44.6765,51.1801 52.5,52.5C 51.8256,54.1955 51.1589,55.8621 50.5,57.5 Z"/></g>
<g><path style="opacity:1" fill="#cccbcc" d="M 26.5,52.5 C 27.1667,52.5 27.8333,52.5 28.5,52.5C 28.8333,52.5 29.1667,52.5 29.5,52.5C 29.5,53.5 29.5,54.5 29.5,55.5C 28.9002,56.8999 27.9002,57.8999 26.5,58.5C 24.8561,58.2865 23.3561,58.6198 22,59.5C 21.5357,58.9056 21.369,58.2389 21.5,57.5C 22.8333,55.5 24.5,53.8333 26.5,52.5 Z"/></g>
<g><path style="opacity:1" fill="#d9d7d8" d="M 53.5,52.5 C 55.4113,53.075 57.078,54.075 58.5,55.5C 59.4756,56.8149 60.4756,58.1482 61.5,59.5C 61.3764,60.1067 61.0431,60.44 60.5,60.5C 58.1098,58.9802 55.4432,57.9802 52.5,57.5C 52.6287,55.7839 52.962,54.1172 53.5,52.5 Z"/></g>
<g><path style="opacity:1" fill="#28523b" d="M 58.5,55.5 C 61.241,56.4394 63.241,58.2728 64.5,61C 62.9343,61.765 61.6009,61.5983 60.5,60.5C 61.0431,60.44 61.3764,60.1067 61.5,59.5C 60.4756,58.1482 59.4756,56.8149 58.5,55.5 Z"/></g>
<g><path style="opacity:1" fill="#394c42" d="M 21.5,57.5 C 21.369,58.2389 21.5357,58.9056 22,59.5C 23.3561,58.6198 24.8561,58.2865 26.5,58.5C 23.8579,60.4802 20.8579,61.3135 17.5,61C 18.7051,59.6244 20.0384,58.4577 21.5,57.5 Z"/></g>
<g><path style="opacity:1" fill="#202716" d="M 8.5,61.5 C 12.7852,70.1443 19.7852,73.811 29.5,72.5C 20.556,75.203 13.556,72.5363 8.5,64.5C 8.5,63.5 8.5,62.5 8.5,61.5 Z"/></g>
<g><path style="opacity:1" fill="#727272" d="M 80.5,2.5 C 81.6626,22.6625 81.8292,42.9958 81,63.5C 72.0572,87.6093 54.8905,97.1093 29.5,92C 26.0205,90.8026 23.0205,88.9693 20.5,86.5C 28.9829,90.8027 37.9829,92.3027 47.5,91C 62.6889,88.4942 73.1889,79.9942 79,65.5C 80.3884,44.5301 80.8884,23.5301 80.5,2.5 Z"/></g>
<g><path style="opacity:1" fill="#ead91b" d="M 75.5,50.5 C 76.1667,53.5 76.8333,56.5 77.5,59.5C 71.54,81.9986 56.8734,91.8319 33.5,89C 21.0459,86.2904 12.3793,79.1238 7.5,67.5C 8.40397,66.791 8.73731,65.791 8.5,64.5C 13.556,72.5363 20.556,75.203 29.5,72.5C 30.791,72.7373 31.791,72.404 32.5,71.5C 34.4835,71.6168 36.1502,70.9501 37.5,69.5C 39.157,72.7455 38.4904,73.7455 35.5,72.5C 30.4705,74.9066 25.1372,76.0732 19.5,76C 22.0282,80.141 25.6948,81.4744 30.5,80C 37.3252,73.1953 39.3252,74.0287 36.5,82.5C 35.5222,82.811 34.8555,83.4777 34.5,84.5C 37.0865,85.48 39.7531,85.8134 42.5,85.5C 42.5,83.1667 42.5,80.8333 42.5,78.5C 42.5,77.5 42.5,76.5 42.5,75.5C 45.5976,76.2159 48.2643,77.7159 50.5,80C 55.5277,81.5483 59.5277,80.2149 62.5,76C 60.3203,75.5812 58.1537,75.7479 56,76.5C 52.0839,74.4588 47.9172,73.4588 43.5,73.5C 43.3398,71.8008 43.5065,70.1341 44,68.5C 46.1851,70.5402 48.6851,71.8736 51.5,72.5C 53.1175,73.9723 55.1175,74.639 57.5,74.5C 60.9263,74.4692 63.9263,73.4692 66.5,71.5C 68.1703,71.2488 69.6703,70.5822 71,69.5C 75.0643,63.8466 76.5643,57.5133 75.5,50.5 Z"/></g>
<g><path style="opacity:1" fill="#222816" d="M 36.5,61.5 C 39.5,61.5 42.5,61.5 45.5,61.5C 44.6016,62.1577 43.6016,62.8243 42.5,63.5C 44.5493,67.5494 47.5493,70.5494 51.5,72.5C 48.6851,71.8736 46.1851,70.5402 44,68.5C 43.5065,70.1341 43.3398,71.8008 43.5,73.5C 47.9172,73.4588 52.0839,74.4588 56,76.5C 58.1537,75.7479 60.3203,75.5812 62.5,76C 59.5277,80.2149 55.5277,81.5483 50.5,80C 48.2643,77.7159 45.5976,76.2159 42.5,75.5C 42.8204,72.1016 42.487,68.7683 41.5,65.5C 40.5039,70.1336 39.6706,74.8002 39,79.5C 38.6232,80.9423 37.7899,81.9423 36.5,82.5C 39.3252,74.0287 37.3252,73.1953 30.5,80C 25.6948,81.4744 22.0282,80.141 19.5,76C 25.1372,76.0732 30.4705,74.9066 35.5,72.5C 38.4904,73.7455 39.157,72.7455 37.5,69.5C 36.1502,70.9501 34.4835,71.6168 32.5,71.5C 35.4518,69.2149 38.1185,66.5483 40.5,63.5C 39.0508,62.8281 37.7175,62.1614 36.5,61.5 Z"/></g>
<g><path style="opacity:1" fill="#313112" d="M 66.5,71.5 C 63.9263,73.4692 60.9263,74.4692 57.5,74.5C 55.1175,74.639 53.1175,73.9723 51.5,72.5C 56.547,72.6625 61.547,72.3292 66.5,71.5 Z"/></g>
<g><path style="opacity:1" fill="#34a86d" d="M 32.5,74.5 C 33.2389,74.369 33.9056,74.5357 34.5,75C 32.6508,76.093 30.9842,77.4263 29.5,79C 27.272,79.8201 25.272,79.4868 23.5,78C 27.0045,77.8809 30.0045,76.7143 32.5,74.5 Z"/></g>
<g><path style="opacity:1" fill="#32a46c" d="M 45.5,75.5 C 45.7352,74.9033 46.2352,74.5699 47,74.5C 50.5233,76.6711 54.3566,77.8377 58.5,78C 56.3863,79.518 54.053,79.8513 51.5,79C 49.9366,77.0527 47.9366,75.886 45.5,75.5 Z"/></g>
<g><path style="opacity:1" fill="#35a76d" d="M 42.5,75.5 C 42.5,76.5 42.5,77.5 42.5,78.5C 41.2616,80.2143 40.595,82.2143 40.5,84.5C 38.5168,84.8432 37.1834,84.1765 36.5,82.5C 37.7899,81.9423 38.6232,80.9423 39,79.5C 39.6706,74.8002 40.5039,70.1336 41.5,65.5C 42.487,68.7683 42.8204,72.1016 42.5,75.5 Z"/></g>
<g><path style="opacity:1" fill="#212e1c" d="M 42.5,78.5 C 42.5,80.8333 42.5,83.1667 42.5,85.5C 39.7531,85.8134 37.0865,85.48 34.5,84.5C 34.8555,83.4777 35.5222,82.811 36.5,82.5C 37.1834,84.1765 38.5168,84.8432 40.5,84.5C 40.595,82.2143 41.2616,80.2143 42.5,78.5 Z"/></g>
</svg>

<svg xmlns="http://www.w3.org/2000/svg" width="85" height="96" style="shape-rendering:geometricPrecision;text-rendering:geometricPrecision;image-rendering:optimizeQuality;fill-rule:evenodd;clip-rule:evenodd"><path style="opacity:1" fill="#1a1912" d="M80.5 2.5c.388 21.03-.112 42.03-1.5 63C73.189 79.994 62.689 88.494 47.5 91c-9.517 1.303-18.517-.197-27-4.5a30.112 30.112 0 0 1-6-3.5C8.805 77.285 4.971 70.451 3 62.5c-.667-20-.667-40 0-60a752.283 752.283 0 0 1 77.5 0z"/><path style="opacity:1" fill="#f3e01c" d="M6.5 3.5c13.309 1.779 26.976 2.946 41 3.5 1.442.377 2.442 1.21 3 2.5h-2c-.709-.904-1.709-1.237-3-1-7.798-2.678-14.299-.678-19.5 6-1.707 2.409-2.54 5.076-2.5 8-1.333 2.667-1.333 5.333 0 8 .104 2.203.77 4.203 2 6-7.09-.036-12.59 2.964-16.5 9-1.874 2.668-2.707 5.668-2.5 9-.184 2.705.483 5.038 2 7v3c.237 1.291-.096 2.291-1 3-1.57-2.351-2.403-5.018-2.5-8l-.5-28c.002-9.691.668-19.025 2-28z"/><path style="opacity:1" fill="#f4e11c" d="M6.5 3.5h72c.33 18.84-.003 37.508-1 56l-2-9c-2-6.667-6.333-11-13-13l-6-2c5.437-10.448 3.437-19.115-6-26-.558-1.29-1.558-2.123-3-2.5-14.024-.554-27.691-1.721-41-3.5z"/><path style="opacity:1" fill="#3aae71" d="M45.5 8.5c1.291-.237 2.291.096 3 1 6.884 4.434 10.05 10.767 9.5 19-.424 2.525-1.59 4.525-3.5 6v-8h-10c.237-1.291-.096-2.291-1-3 .24-2.398-.426-4.398-2-6l-2 2a68.667 68.667 0 0 0-3 6.5 40.936 40.936 0 0 1-9 .5v9a22.763 22.763 0 0 1-4-5c-1.333-2.667-1.333-5.333 0-8 3.705-10.194 11.038-14.86 22-14z"/><path style="opacity:1" fill="#1d2717" d="M45.5 8.5c-10.962-.86-18.295 3.806-22 14-.04-2.924.793-5.591 2.5-8 5.201-6.678 11.702-8.678 19.5-6z"/><path style="opacity:1" fill="#e9eaea" d="M41.5 17.5c.095 2.286.762 4.286 2 6v3c-1.788.285-3.455-.048-5-1a11.989 11.989 0 0 0 1-6l2-2z"/><path style="opacity:1" fill="#2c5440" d="M41.5 17.5c1.574 1.602 2.24 3.602 2 6-1.238-1.714-1.905-3.714-2-6z"/><path style="opacity:1" fill="#49282d" d="M39.5 19.5a11.989 11.989 0 0 1-1 6c1.545.952 3.212 1.285 5 1v-3c.904.709 1.237 1.709 1 3h10v8c.172.992-.162 1.658-1 2v-9h-25v9c-.667 0-1-.333-1-1v-9a40.936 40.936 0 0 0 9-.5 68.667 68.667 0 0 1 3-6.5z"/><path style="opacity:1" fill="#da0052" d="M53.5 36.5v1c-8.517.326-16.85-.007-25-1v-9h25v9z"/><path style="opacity:1" fill="#716409" d="m56.5 35.5 6 2a13.117 13.117 0 0 1-7-1c.124-.607.457-.94 1-1z"/><path style="opacity:1" fill="#263018" d="M48.5 9.5h2c9.437 6.885 11.437 15.552 6 26-.543.06-.876.393-1 1a13.117 13.117 0 0 0 7 1c6.667 2 11 6.333 13 13 1.064 7.013-.436 13.347-4.5 19a9.173 9.173 0 0 1-4.5 2c6.606-5.367 9.106-12.367 7.5-21-3.273-9.22-9.773-13.22-19.5-12h-1v-2c.838-.342 1.172-1.008 1-2 1.91-1.475 3.076-3.475 3.5-6 .55-8.233-2.616-14.566-9.5-19z"/><path style="opacity:1" fill="#3ab173" d="M21.5 38.5h6a53.788 53.788 0 0 1-1 14c-2 1.333-3.667 3-5 5a19.568 19.568 0 0 0-4 3.5c3.358.313 6.358-.52 9-2.5 1.4-.6 2.4-1.6 3-3 1.694 2.69 4.027 4.69 7 6a70.679 70.679 0 0 0 4 2c-2.382 3.048-5.048 5.715-8 8-.709.904-1.709 1.237-3 1-9.715 1.311-16.715-2.356-21-11-2.084-11.517 2.25-19.183 13-23z"/><path style="opacity:1" fill="#3ab273" d="M54.5 38.5c9.727-1.22 16.227 2.78 19.5 12 1.606 8.633-.894 15.633-7.5 21a75.84 75.84 0 0 1-15 1c-3.95-1.95-6.95-4.95-9-9a44.293 44.293 0 0 0 3-2 21.628 21.628 0 0 0 5-4h2c2.943.48 5.61 1.48 8 3 1.1 1.098 2.434 1.265 4 .5-1.259-2.727-3.259-4.56-6-5.5-.212-1.884-1.212-3.217-3-4a43.123 43.123 0 0 1-1-13z"/><path style="opacity:1" fill="#333e1d" d="m25.5 36.5-4 2c-10.75 3.817-15.084 11.483-13 23-1.517-1.962-2.184-4.295-2-7-.207-3.332.626-6.332 2.5-9 3.91-6.036 9.41-9.036 16.5-9z"/><path style="opacity:1" fill="#7f152f" d="M53.5 52.5a20.677 20.677 0 0 0-1 5h-2c.659-1.638 1.326-3.304 2-5-7.824-1.32-15.49-1.32-23 0h-1c3.776-1.325 7.943-1.992 12.5-2 4.557.008 8.724.675 12.5 2z"/><path style="opacity:1" fill="#54645a" d="M23.5 30.5a22.763 22.763 0 0 0 4 5c0 .667.333 1 1 1 8.15.993 16.483 1.326 25 1v1h1a43.123 43.123 0 0 0 1 13c1.788.783 2.788 2.116 3 4a11.741 11.741 0 0 0-5-3c-3.776-1.325-7.943-1.992-12.5-2-4.557.008-8.724.675-12.5 2h-2a53.788 53.788 0 0 0 1-14h-6l4-2c-1.23-1.797-1.896-3.797-2-6z"/><path style="opacity:1" fill="#fbfbfb" d="M53.5 38.5v11h-25v-11h25z"/><path style="opacity:1" fill="#d90152" d="M50.5 57.5a21.628 21.628 0 0 1-5 4h-9c-2.973-1.31-5.306-3.31-7-6v-3c7.51-1.32 15.176-1.32 23 0-.674 1.696-1.341 3.362-2 5z"/><path style="opacity:1" fill="#cccbcc" d="M26.5 52.5h3v3c-.6 1.4-1.6 2.4-3 3-1.644-.214-3.144.12-4.5 1a2.428 2.428 0 0 1-.5-2c1.333-2 3-3.667 5-5z"/><path style="opacity:1" fill="#d9d7d8" d="M53.5 52.5a11.741 11.741 0 0 1 5 3 493.061 493.061 0 0 0 3 4c-.124.607-.457.94-1 1-2.39-1.52-5.057-2.52-8-3a20.677 20.677 0 0 1 1-5z"/><path style="opacity:1" fill="#28523b" d="M58.5 55.5c2.741.94 4.741 2.773 6 5.5-1.566.765-2.9.598-4-.5.543-.06.876-.393 1-1a493.061 493.061 0 0 1-3-4z"/><path style="opacity:1" fill="#394c42" d="M21.5 57.5a2.428 2.428 0 0 0 .5 2c1.356-.88 2.856-1.214 4.5-1-2.642 1.98-5.642 2.813-9 2.5a19.568 19.568 0 0 1 4-3.5z"/><path style="opacity:1" fill="#202716" d="M8.5 61.5c4.285 8.644 11.285 12.311 21 11-8.944 2.703-15.944.036-21-8v-3z"/><path style="opacity:1" fill="#727272" d="M80.5 2.5a622.272 622.272 0 0 1 .5 61C72.057 87.61 54.89 97.11 29.5 92c-3.48-1.197-6.48-3.03-9-5.5 8.483 4.303 17.483 5.803 27 4.5C62.689 88.494 73.189 79.994 79 65.5a744.963 744.963 0 0 0 1.5-63z"/><path style="opacity:1" fill="#ead91b" d="m75.5 50.5 2 9c-5.96 22.499-20.627 32.332-44 29.5-12.454-2.71-21.12-9.876-26-21.5.904-.709 1.237-1.709 1-3 5.056 8.036 12.056 10.703 21 8 1.291.237 2.291-.096 3-1 1.983.117 3.65-.55 5-2 1.657 3.246.99 4.246-2 3-5.03 2.407-10.363 3.573-16 3.5 2.528 4.141 6.195 5.474 11 4 6.825-6.805 8.825-5.971 6 2.5-.978.311-1.645.978-2 2a16.869 16.869 0 0 0 8 1v-10c3.098.716 5.764 2.216 8 4.5 5.028 1.548 9.028.215 12-4-2.18-.419-4.346-.252-6.5.5a26.12 26.12 0 0 0-12.5-3c-.16-1.7.007-3.366.5-5 2.185 2.04 4.685 3.374 7.5 4 1.617 1.472 3.617 2.139 6 2 3.426-.03 6.426-1.03 9-3a9.173 9.173 0 0 0 4.5-2c4.064-5.653 5.564-11.987 4.5-19z"/><path style="opacity:1" fill="#222816" d="M36.5 61.5h9a44.293 44.293 0 0 1-3 2c2.05 4.05 5.05 7.05 9 9-2.815-.626-5.315-1.96-7.5-4-.493 1.634-.66 3.3-.5 5a26.12 26.12 0 0 1 12.5 3c2.154-.752 4.32-.919 6.5-.5-2.972 4.215-6.972 5.548-12 4-2.236-2.284-4.902-3.784-8-4.5a25.87 25.87 0 0 0-1-10c-.996 4.634-1.83 9.3-2.5 14-.377 1.442-1.21 2.442-2.5 3 2.825-8.471.825-9.305-6-2.5-4.805 1.474-8.472.141-11-4 5.637.073 10.97-1.093 16-3.5 2.99 1.246 3.657.246 2-3-1.35 1.45-3.017 2.117-5 2 2.952-2.285 5.618-4.952 8-8a70.679 70.679 0 0 1-4-2z"/><path style="opacity:1" fill="#313112" d="M66.5 71.5c-2.574 1.97-5.574 2.97-9 3-2.383.139-4.383-.528-6-2a75.84 75.84 0 0 0 15-1z"/><path style="opacity:1" fill="#34a86d" d="M32.5 74.5a2.428 2.428 0 0 1 2 .5 22.763 22.763 0 0 0-5 4c-2.228.82-4.228.487-6-1 3.505-.12 6.505-1.286 9-3.5z"/><path style="opacity:1" fill="#32a46c" d="M45.5 75.5c.235-.597.735-.93 1.5-1 3.523 2.171 7.357 3.338 11.5 3.5-2.114 1.518-4.447 1.851-7 1-1.563-1.947-3.563-3.114-6-3.5z"/><path style="opacity:1" fill="#35a76d" d="M42.5 75.5v3c-1.238 1.714-1.905 3.714-2 6-1.983.343-3.317-.323-4-2 1.29-.558 2.123-1.558 2.5-3 .67-4.7 1.504-9.366 2.5-14a25.87 25.87 0 0 1 1 10z"/><path style="opacity:1" fill="#212e1c" d="M42.5 78.5v7a16.869 16.869 0 0 1-8-1c.355-1.022 1.022-1.689 2-2 .683 1.677 2.017 2.343 4 2 .095-2.286.762-4.286 2-6z"/></svg>
